X:166
T:Sailors Journal,Comd by Dibdin,The. JC.165
R:Song & Air
S:John Clare,Poet,Helpstone (1793-1864)
N:Song text exists. See Deacon.
O:England
A:Northamptonshire
Z:vmp.P. Headford
M:3/4
L:1/8
Q:1/4=120
K:A
” INTRO”ecA|” ANDANTINO”A2{BA}G {c}AFD|C>.D.E.F.G.A|\
Bc{e}d3c|cBzafd|cecAGE|!
D2{EF}E Ace|{e}d>c{e}d3B|c” SONG”Az” Two’s past the Me–ri—dian”e c A|\
(A2{BA}G) ” half past four”A F D|!
(C>DE)” by signal I from Nancy parted” F G A|B c{e}d3c|\
c Bz” at six she lin–gered”e c A|(A2{BA}G) A ” on the”F D|!
” shore, with uplift”(C>DE) A c e|\
” hands & broken hearted”d3/2 c/ {e}d3/2 B|c Az” at seven while”A c B/A/|\
” taughtening the forestay I saw her”BG Ec B G|!
E3F E C|” faint or else was fancy”(A,>B,C) E A c|\
c Bz ” at eight we all got” e f e|{e}d3c ” under weigh”{c}B c/A/|!
(A2{BA}G)” and bade a long” A F D|C ” Adieu to Nancy”Ed3e|c Azafd|cecAGE|!
D2{EF}EAce|\
{e}d>c{e}d3B|c” FIN”Az||!
K:D
” FLUTE SOLO”afd|d2{ed}cdBG|{G}F>G ABcd|ef{a}g3fzfezafd|d2{ed}cdBG|!
F>GAdfa|g>f{a}g3e|fdzd/e/f e/d/|e>cAedc|A3BAF|!
D>EFAdf|fezaba|{a}g3f ef/d/|d2{ed}cdBG|F2A2G3a|fdz|]
W:NB words relate to the tune below them CGP.

